app/public/dtpr-icons/values.svg

<svg width="36" height="36" viewBox="0 0 36 36" fill="none" xmlns="http://www.w3.org/2000/svg">
<path fill-rule="evenodd" clip-rule="evenodd" d="M15.9856 16.2798H15.9846C15.7504 16.2798 15.5276 16.3774 15.367 16.5475L9.73059 22.5377C9.40933 22.879 9.42559 23.4173 9.76788 23.7395C9.93138 23.8935 10.1408 23.97 10.3492 23.97C10.5758 23.97 10.8015 23.8801 10.9688 23.7023L15.9875 18.368L18.5901 21.115C18.7564 21.2899 18.9907 21.3865 19.2326 21.3798C19.4735 21.3731 19.702 21.2622 19.8579 21.0777L26.3003 13.4277C26.6024 13.0682 26.5565 12.5328 26.198 12.2297C25.8385 11.9275 25.3021 11.9734 25 12.3329L19.1695 19.2543L16.6032 16.5456C16.4426 16.3764 16.2189 16.2798 15.9856 16.2798Z" fill="black"/>
<rect x="2" y="2" width="32" height="32" rx="16" stroke="black" stroke-width="2"/>
</svg>

<svg xmlns="http://www.w3.org/2000/svg" width="36" height="36" fill="none"><path fill="#000" fill-rule="evenodd" d="M15.986 16.28h-.001a.85.85 0 0 0-.618.267l-5.636 5.99a.85.85 0 0 0 1.238 1.165l5.019-5.334 2.602 2.747a.853.853 0 0 0 1.268-.037l6.442-7.65a.851.851 0 0 0-1.3-1.095l-5.83 6.921-2.567-2.708a.85.85 0 0 0-.617-.266" clip-rule="evenodd"/><rect width="32" height="32" x="2" y="2" stroke="#000" stroke-width="2" rx="16"/></svg>
